autogermania/dist/img/svg/gearbox-manual.svg

<svg xmlns="http://www.w3.org/2000/svg" width="25" height="25"><path fill-rule="evenodd" d="M22.986 6.398l-.526.245.019 2.848c.009 2-.019 2.901-.095 3.038-.253.463-.309.473-5.263.473h-4.597v5.439l.497.273c.685.373 1.417 1.173 1.661 1.819.619 1.592-.226 3.403-1.961 4.194-.432.191-.657.237-1.277.237-.666 0-.834-.037-1.379-.301-1.407-.673-2.299-2.183-2.045-3.502.207-1.037 1.022-2.074 2.007-2.537l.432-.201v-5.421H4.455v5.421l.431.201c.61.29 1.37 1.018 1.689 1.628.215.427.281.673.309 1.273.028.682 0 .81-.253 1.347a3.9 3.9 0 01-1.792 1.801c-.535.254-.713.291-1.37.291-.666 0-.835-.037-1.379-.301a3.528 3.528 0 01-1.088-.791c-1.033-1.101-1.267-2.284-.686-3.557.253-.555 1.126-1.41 1.698-1.674l.469-.209V12.51l-.009-5.922-.469-.218C1.085 5.951.269 4.924.054 3.904-.266 2.394.879.684 2.568.165c.657-.2.947-.209 1.653-.036 1.004.255 1.877.964 2.402 1.956.319.609.357 1.692.085 2.392-.254.646-1.06 1.519-1.755 1.902l-.497.273.018 2.201.029 2.192 2.984.028 2.974.018V6.56l-.225-.054c-.357-.083-1.173-.728-1.558-1.228-.46-.601-.694-1.266-.675-2.002 0-.472.065-.71.337-1.246C8.885.975 9.776.301 10.967.065c.46-.1.629-.091 1.164.046 1.126.291 1.97.973 2.477 2.028.488 1.019.347 2.183-.394 3.139-.357.463-1.155 1.109-1.502 1.218-.178.056-.187.146-.187 2.329v2.266h7.974V6.589l-.441-.228c-.628-.327-1.276-.992-1.632-1.683-.694-1.364-.225-2.938 1.182-3.975.272-.2.741-.428 1.126-.546.572-.173.722-.182 1.238-.1.788.137 1.389.436 1.961.991.713.673.995 1.274 1.051 2.175.027.591 0 .827-.169 1.255-.272.692-1.107 1.574-1.829 1.92zM2.342 20.643c-.235.245-.281.363-.309.891-.029.528 0 .655.188.928.281.41.656.582 1.247.582.92 0 1.379-.428 1.435-1.338.029-.618-.14-1.018-.571-1.291-.282-.173-1.052-.255-1.427-.136-.159.045-.412.209-.563.364zM4.923 3.432c0-.592-.206-1.028-.582-1.256-.216-.128-.469-.182-.873-.181-.966 0-1.454.455-1.454 1.364 0 .664.226 1.073.694 1.282 1.099.482 2.215-.127 2.215-1.209zm5.066 18.239c0 .873.535 1.373 1.455 1.373.928 0 1.454-.5 1.454-1.392 0-.564-.207-.991-.591-1.237-.282-.173-1.052-.255-1.417-.136-.581.181-.901.663-.901 1.392zm2.758-17.53c.329-.673.113-1.637-.431-1.965-.216-.128-.469-.182-.873-.182-.976 0-1.455.473-1.455 1.419 0 .61.235 1.029.695 1.228.779.337 1.773.1 2.064-.5zm9.701-1.965c-.215-.128-.469-.182-.872-.181-.966 0-1.454.455-1.454 1.364 0 .664.225 1.073.694 1.282 1.098.482 2.214-.127 2.214-1.209 0-.592-.206-1.028-.582-1.256zm-3.349 14.755c.169-.083.676-.109 1.96-.091 1.68.027 1.755.036 2.271.282.976.464 1.614 1.374 1.614 2.293 0 .718-.272 1.282-.891 1.874l-.489.454.31.428C24.868 23.526 25 23.753 25 24.053c0 .71-.957 1.21-1.51.783-.141-.101-.657-.746-1.154-1.419l-.91-1.229h-.929v1.092c0 1.055-.01 1.101-.253 1.364a.996.996 0 01-.658.337c-.366.046-.431.018-.731-.273l-.329-.318-.009-1.537c-.018-4.357.01-5.34.188-5.577.094-.127.272-.282.394-.345zm1.398 2.583v.692l1.089-.037c.947-.027 1.097-.054 1.219-.2.159-.219.169-.91.019-1.037-.169-.127-.741-.172-1.595-.137l-.732.037v.682z"/></svg>

<svg 
 xmlns="http://www.w3.org/2000/svg"
 xmlns:xlink="http://www.w3.org/1999/xlink"
 width="25px" height="25px">
<path fill-rule="evenodd"  fill="rgb(0, 0, 0)"
 d="M22.986,6.398 L22.460,6.643 L22.479,9.491 C22.488,11.491 22.460,12.392 22.384,12.529 C22.131,12.992 22.075,13.002 17.121,13.002 L12.524,13.002 L12.524,15.722 L12.524,18.441 L13.021,18.714 C13.706,19.087 14.438,19.887 14.682,20.533 C15.301,22.125 14.456,23.936 12.721,24.727 C12.289,24.918 12.064,24.964 11.444,24.964 C10.778,24.964 10.610,24.927 10.065,24.663 C8.658,23.990 7.766,22.480 8.020,21.161 C8.227,20.124 9.042,19.087 10.027,18.624 L10.459,18.423 L10.459,15.713 L10.459,13.002 L7.457,13.002 L4.455,13.002 L4.455,15.713 L4.455,18.423 L4.886,18.624 C5.496,18.914 6.256,19.642 6.575,20.252 C6.790,20.679 6.856,20.925 6.884,21.525 C6.912,22.207 6.884,22.335 6.631,22.872 C6.246,23.663 5.608,24.300 4.839,24.673 C4.304,24.927 4.126,24.964 3.469,24.964 C2.803,24.964 2.634,24.927 2.090,24.663 C1.686,24.472 1.301,24.200 1.002,23.872 C-0.031,22.771 -0.265,21.588 0.316,20.315 C0.569,19.760 1.442,18.905 2.014,18.641 L2.483,18.432 L2.483,12.510 L2.474,6.588 L2.005,6.370 C1.085,5.951 0.269,4.924 0.054,3.904 C-0.266,2.394 0.879,0.684 2.568,0.165 C3.225,-0.035 3.515,-0.044 4.221,0.129 C5.225,0.384 6.098,1.093 6.623,2.085 C6.942,2.694 6.980,3.777 6.708,4.477 C6.454,5.123 5.648,5.996 4.953,6.379 L4.456,6.652 L4.474,8.853 L4.503,11.045 L7.487,11.073 L10.461,11.091 L10.461,8.825 L10.461,6.560 L10.236,6.506 C9.879,6.423 9.063,5.778 8.678,5.278 C8.218,4.677 7.984,4.012 8.003,3.276 C8.003,2.804 8.068,2.566 8.340,2.030 C8.885,0.975 9.776,0.301 10.967,0.065 C11.427,-0.035 11.596,-0.026 12.131,0.111 C13.257,0.402 14.101,1.084 14.608,2.139 C15.096,3.158 14.955,4.322 14.214,5.278 C13.857,5.741 13.059,6.387 12.712,6.496 C12.534,6.552 12.525,6.642 12.525,8.825 L12.525,11.091 L16.512,11.091 L20.499,11.091 L20.499,8.836 L20.499,6.589 L20.058,6.361 C19.430,6.034 18.782,5.369 18.426,4.678 C17.732,3.314 18.201,1.740 19.608,0.703 C19.880,0.503 20.349,0.275 20.734,0.157 C21.306,-0.016 21.456,-0.025 21.972,0.057 C22.760,0.194 23.361,0.493 23.933,1.048 C24.646,1.721 24.928,2.322 24.984,3.223 C25.011,3.814 24.984,4.050 24.815,4.478 C24.543,5.170 23.708,6.052 22.986,6.398 ZM2.342,20.643 C2.107,20.888 2.061,21.006 2.033,21.534 C2.004,22.062 2.033,22.189 2.221,22.462 C2.502,22.872 2.877,23.044 3.468,23.044 C4.388,23.044 4.847,22.616 4.903,21.706 C4.932,21.088 4.763,20.688 4.332,20.415 C4.050,20.242 3.280,20.160 2.905,20.279 C2.746,20.324 2.493,20.488 2.342,20.643 ZM4.923,3.432 C4.923,2.840 4.717,2.404 4.341,2.176 C4.125,2.048 3.872,1.994 3.468,1.995 C2.502,1.995 2.014,2.450 2.014,3.359 C2.014,4.023 2.240,4.432 2.708,4.641 C3.807,5.123 4.923,4.514 4.923,3.432 ZM9.989,21.671 C9.989,22.544 10.524,23.044 11.444,23.044 C12.372,23.044 12.898,22.544 12.898,21.652 C12.898,21.088 12.691,20.661 12.307,20.415 C12.025,20.242 11.255,20.160 10.890,20.279 C10.309,20.460 9.989,20.942 9.989,21.671 ZM12.747,4.141 C13.076,3.468 12.860,2.504 12.316,2.176 C12.100,2.048 11.847,1.994 11.443,1.994 C10.467,1.994 9.988,2.467 9.988,3.413 C9.988,4.023 10.223,4.442 10.683,4.641 C11.462,4.978 12.456,4.741 12.747,4.141 ZM22.448,2.176 C22.233,2.048 21.979,1.994 21.576,1.995 C20.610,1.995 20.122,2.450 20.122,3.359 C20.122,4.023 20.347,4.432 20.816,4.641 C21.914,5.123 23.030,4.514 23.030,3.432 C23.030,2.840 22.824,2.404 22.448,2.176 ZM19.099,16.931 C19.268,16.848 19.775,16.822 21.059,16.840 C22.739,16.867 22.814,16.876 23.330,17.122 C24.306,17.586 24.944,18.496 24.944,19.415 C24.944,20.133 24.672,20.697 24.053,21.289 L23.564,21.743 L23.874,22.171 C24.868,23.526 25.000,23.753 25.000,24.053 C25.000,24.763 24.043,25.263 23.490,24.836 C23.349,24.735 22.833,24.090 22.336,23.417 L21.426,22.188 L20.966,22.188 L20.497,22.188 L20.497,23.280 C20.497,24.335 20.487,24.381 20.244,24.644 C20.056,24.845 19.868,24.945 19.586,24.981 C19.220,25.027 19.155,24.999 18.855,24.708 L18.526,24.390 L18.517,22.853 C18.499,18.496 18.527,17.513 18.705,17.276 C18.799,17.149 18.977,16.994 19.099,16.931 ZM20.497,19.514 L20.497,20.206 L21.586,20.169 C22.533,20.142 22.683,20.115 22.805,19.969 C22.964,19.750 22.974,19.059 22.824,18.932 C22.655,18.805 22.083,18.760 21.229,18.795 L20.497,18.832 L20.497,19.514 Z"/>
</svg>
